X:19061
T:Savage Hornpipe
R:Hornpipe
C:Trad.
O:England
Z:Paul Hardy's Session Tunebook 2015 (see www.paulhardy.net). Creative Commons cc by-nc-sa licenced.
M:4/4
L:1/8
Q:1/4=140
K:G
|:(3DEF|"G"G2G2 GABc|dBdg dBGB|"Em"E2E2 EFGE|"G"DB,DG DB,G,B,|
"C"CB,CD "Em"EGFA|"G"GABc "D"def2|"G"dBGB "D7"cAGF|"G"G2 G2 G2:|
|:dc|"G"BdGd BdGd|"D"AdFd AdFd|"Em"GBEB GBEB|"D"FADA FADB,|
"C"CB,CD "Em"EGFA|"G"GABc "D"defg|"G"dBGB "D7"cAGF|"G"G2 G2 G2:|

